X: 2
T: Redwing [G]
N: RJ	S-R	G	square
C: George F. Handel
Z: Transcribed to abc by Mary Lou Knack
R: polka, square
M: C|
L: 1/8
K: G
D4 |:\
"G"G3G G2B2 | d6 B2 | "C"c2e2  g2e2 | "G"d6 B2 |\
"C"c2cB A2c2 | "G"B2BA G2B2 |[1 "A"A2E2 F2G2 | "D"A6 D2 :|[2 "A"A2E2 "D7"F2D2 | "G"G4 |]
|: g2f2 | "C"e4 e3e | e2g2 f2e2 | "G"d4 B4- | B2d2 e2d2 | "D7"d4 A4- |\
[1 A2d2 e2d2 | "G"d4 B4- | B4 :|[2 "D"A2c2 B2A2 | "G"G8- | G4 |]
% text 2/10/00.


